Simply-Cyan-Circles/scalable/devices/multimedia-player.svg

<svg xmlns="http://www.w3.org/2000/svg" width="48" height="48" viewBox="0 0 12.7 12.7"><path d="M6.344.073a6.29 6.29 0 0 0-6.29 6.29 6.29 6.29 0 0 0 6.29 6.288 6.29 6.29 0 0 0 6.29-6.289 6.29 6.29 0 0 0-6.29-6.29zm-.018.936a5.407 5.407 0 0 1 5.407 5.407 5.407 5.407 0 0 1-5.407 5.407A5.407 5.407 0 0 1 .92 6.416 5.407 5.407 0 0 1 6.326 1.01zM4.138 2.12a.902.902 0 0 0-.91.91v6.848c0 .509.401.91.91.91H8.51c.508 0 .91-.4.91-.91V3.03a.902.902 0 0 0-.91-.91H4.138zm-.29.619H8.8v3.096H3.847V2.738zm2.476 3.715a1.858 1.858 0 0 1 0 3.715 1.858 1.858 0 0 1 0-3.715zm0 .929a.929.929 0 0 0-.928.929.929.929 0 0 0 .928.928.929.929 0 0 0 .93-.928.929.929 0 0 0-.93-.929z" fill="#5beedc"/></svg>

<?xml version="1.0" encoding="UTF-8" standalone="no"?>
<svg
   xmlns:dc="http://purl.org/dc/elements/1.1/"
   xmlns:cc="http://creativecommons.org/ns#"
   xmlns:rdf="http://www.w3.org/1999/02/22-rdf-syntax-ns#"
   xmlns:svg="http://www.w3.org/2000/svg"
   xmlns="http://www.w3.org/2000/svg"
   xmlns:sodipodi="http://sodipodi.sourceforge.net/DTD/sodipodi-0.dtd"
   xmlns:inkscape="http://www.inkscape.org/namespaces/inkscape"
   width="48"
   height="48"
   viewBox="0 0 12.7 12.7"
   version="1.1"
   id="svg4"
   sodipodi:docname="multimedia-player.svg"
   inkscape:version="0.92.4 (5da689c313, 2019-01-14)">
  <metadata
     id="metadata10">
    <rdf:RDF>
      <cc:Work
         rdf:about="">
        <dc:format>image/svg+xml</dc:format>
        <dc:type
           rdf:resource="http://purl.org/dc/dcmitype/StillImage" />
        <dc:title></dc:title>
      </cc:Work>
    </rdf:RDF>
  </metadata>
  <defs
     id="defs8" />
  <sodipodi:namedview
     pagecolor="#ffffff"
     bordercolor="#666666"
     borderopacity="1"
     objecttolerance="10"
     gridtolerance="10"
     guidetolerance="10"
     inkscape:pageopacity="0"
     inkscape:pageshadow="2"
     inkscape:window-width="1087"
     inkscape:window-height="480"
     id="namedview6"
     showgrid="false"
     inkscape:zoom="4.9166667"
     inkscape:cx="2.1355932"
     inkscape:cy="24"
     inkscape:window-x="0"
     inkscape:window-y="25"
     inkscape:window-maximized="0"
     inkscape:current-layer="svg4" />
  <path
     d="m 6.344,0.073 a 6.29,6.29 0 0 0 -6.29,6.29 6.29,6.29 0 0 0 6.29,6.288 6.29,6.29 0 0 0 6.29,-6.289 6.29,6.29 0 0 0 -6.29,-6.29 z M 6.326,1.009 A 5.407,5.407 0 0 1 11.733,6.416 5.407,5.407 0 0 1 6.326,11.823 5.407,5.407 0 0 1 0.92,6.416 5.407,5.407 0 0 1 6.326,1.01 Z M 4.138,2.12 a 0.902,0.902 0 0 0 -0.91,0.91 v 6.848 c 0,0.509 0.401,0.91 0.91,0.91 H 8.51 c 0.508,0 0.91,-0.4 0.91,-0.91 V 3.03 A 0.902,0.902 0 0 0 8.51,2.12 Z M 3.848,2.739 H 8.8 V 5.835 H 3.847 V 2.738 Z m 2.476,3.715 a 1.858,1.858 0 0 1 0,3.715 1.858,1.858 0 0 1 0,-3.715 z m 0,0.929 A 0.929,0.929 0 0 0 5.396,8.312 0.929,0.929 0 0 0 6.324,9.24 0.929,0.929 0 0 0 7.254,8.312 0.929,0.929 0 0 0 6.324,7.383 Z"
     id="path2"
     inkscape:connector-curvature="0"
     style="fill:#5beedc" />
</svg>
